common/svg/version-icon.svg

<svg fill="none" height="20" viewBox="0 0 21 20" width="21" xmlns="http://www.w3.org/2000/svg" xmlns:xlink="http://www.w3.org/1999/xlink"><clipPath id="a"><path d="m.740601 0h20v20h-20z"/></clipPath><g clip-path="url(#a)" fill="#000"><path d="m11.8928 8.9585-.2314 2.0833h-2.07312l.23148-2.0833z"/><path clip-rule="evenodd" d="m4.07393 0c-1.84095 0-3.333329 1.49238-3.333329 3.33333v13.33337c0 1.8409 1.492389 3.3333 3.333329 3.3333h13.33337c1.8409 0 3.3333-1.4924 3.3333-3.3333v-13.33337c0-1.84095-1.4924-3.33333-3.3333-3.33333zm6.24487 4.46726c.0508-.45742-.2788-.86944-.73622-.92026s-.86944.27879-.92026.73621l-.3343 3.00862h-2.58744c-.46024 0-.83333.3731-.83333.83333 0 .46024.37309.83334.83333.83334h2.40226l-.23148 2.0833h-2.17078c-.46024 0-.83333.3731-.83333.8334 0 .4602.37309.8333.83333.8333h1.98559l-.31385 2.8247c-.05083.4574.27878.8694.73621.9203.45742.0508.86943-.2788.92026-.7362l.33431-3.0088h2.0731l-.3139 2.8247c-.0508.4574.2788.8694.7362.9203.4574.0508.8695-.2788.9203-.7362l.3343-3.0088h2.5875c.4602 0 .8333-.3731.8333-.8333 0-.4603-.3731-.8334-.8333-.8334h-2.4023l.2315-2.0833h2.1708c.4602 0 .8333-.3731.8333-.83334 0-.46023-.3731-.83333-.8333-.83333h-1.9857l.3139-2.82457c.0508-.45742-.2788-.86944-.7362-.92026s-.8695.27879-.9203.73621l-.3343 3.00862h-2.0731z" fill-rule="evenodd"/></g></svg>

<svg width="21" height="20" viewBox="0 0 21 20" fill="none" xmlns="http://www.w3.org/2000/svg">
<g clip-path="url(#clip0)">
<path d="M11.8928 8.9585L11.6614 11.0418H9.58828L9.81976 8.9585H11.8928Z" fill="black"/>
<path fill-rule="evenodd" clip-rule="evenodd" d="M4.07393 0C2.23298 0 0.740601 1.49238 0.740601 3.33333V16.6667C0.740601 18.5076 2.23299 20 4.07393 20H17.4073C19.2482 20 20.7406 18.5076 20.7406 16.6667V3.33333C20.7406 1.49238 19.2482 0 17.4073 0H4.07393ZM10.3188 4.46726C10.3696 4.00984 10.04 3.59782 9.58258 3.547C9.12516 3.49618 8.71314 3.82579 8.66232 4.28321L8.32802 7.29183H5.74058C5.28034 7.29183 4.90725 7.66493 4.90725 8.12516C4.90725 8.5854 5.28034 8.9585 5.74058 8.9585H8.14284L7.91136 11.0418H5.74058C5.28034 11.0418 4.90725 11.4149 4.90725 11.8752C4.90725 12.3354 5.28034 12.7085 5.74058 12.7085H7.72617L7.41232 15.5332C7.36149 15.9906 7.6911 16.4026 8.14853 16.4535C8.60595 16.5043 9.01796 16.1747 9.06879 15.7173L9.4031 12.7085H11.4762L11.1623 15.5332C11.1115 15.9906 11.4411 16.4026 11.8985 16.4535C12.3559 16.5043 12.768 16.1747 12.8188 15.7173L13.1531 12.7085H15.7406C16.2008 12.7085 16.5739 12.3354 16.5739 11.8752C16.5739 11.4149 16.2008 11.0418 15.7406 11.0418H13.3383L13.5698 8.9585H15.7406C16.2008 8.9585 16.5739 8.5854 16.5739 8.12516C16.5739 7.66493 16.2008 7.29183 15.7406 7.29183H13.7549L14.0688 4.46726C14.1196 4.00984 13.79 3.59782 13.3326 3.547C12.8752 3.49618 12.4631 3.82579 12.4123 4.28321L12.078 7.29183H10.0049L10.3188 4.46726Z" fill="black"/>
</g>
<defs>
<clipPath id="clip0">
<rect width="20" height="20" fill="white" transform="translate(0.740601)"/>
</clipPath>
</defs>
</svg>
